X: 13123
T: First Century
R: reel
M: 4/4
K: Amajor
a2 ga bafd|Adfa bafd|a2ga bafd|c3 c c2 ef|
=g2fg agec|Acef =gece|a2 ga baga|fdA=G F3E|
F2 AF BFAF|dcde d3c|edcd edcd|B=GDC B,3A,|
A,CEA Aceg|agab a=gfg|aA =gA fAec|d3c dedB||
|:AFEC A,CEA|Aceg a3g|aece aecA|GB3 B3c|
dcBA GFED|EGBe g3f|e2 de gede|c4 cdcB|
AFEC A,CEA|Aceg a3b|a2ga baga|fdAF D3e|
f2ef bagf|fe^de aecA|B3B edcB|BAGB A2 fg||
a2 ga bafd|Adfa bafd|a2ga bafd|c3 c c2 ef|
=g2 fg agec|Acef =gecA|a2 ga baga|fdA=G F3 E|
F2 AF BFAF|dcde d3c|edcd edcd|B=GDC B,3A,|
A,CEA Aceg|agab a=gfg|aA=gA fAec|1 d3c dedB:|2 d3 cd4||

